X:8620
T:Sleep Soond Ida Moarnin'
C:anon.
O:Shetland
S:From the playing of Tony and Finbar Murphy
B:Fiddler's Fake Book
R:Reel
Z:Transcribed by Phil Taylor
F:http://abc.musicaviva.com/tunes/shetland/sleep-soond-ida/sleep-soond-ida-1.abc
%Posted at abcusers July 21th 2002 by Phil Taylor
M:4/4
L:1/8
Q:1/4=220
K:A Dor
"Am"e a2 ^g a2 ef|"G"gedB "Em"GABG|"Am"e a2 ^g a2 ef|[1 "G"gedB "Am"A2 BG:|[2 "G"gedB "Am"A3 B||
"Am"cAeA cAeA|"G"BcdB G3 B|"Am"cAeA cAeA|"G"BAGB "Am"A3 B||
"Am"cAeA cAeA|"G"BcdB G3 B|"Am"ABcd efga|"G"gedB "Am"A2 z2|]
W:
W:
W:  From Musica Viva - http://www.musicaviva.com
W:  the Internet center for free sheet music downloads.

